src/assets/logos/js.svg

<svg width="100" height="100" viewBox="0 0 100 100" fill="none" xmlns="http://www.w3.org/2000/svg">
<path d="M100 0H0V100H100V0Z" fill="#F7DF1E"/>
<path d="M67.1745 78.1254C69.1888 81.4143 71.8094 83.8318 76.4444 83.8318C80.338 83.8318 82.8253 81.8857 82.8253 79.1969C82.8253 75.9746 80.2698 74.8334 75.984 72.9588L73.6348 71.9508C66.8539 69.0619 62.3491 65.4429 62.3491 57.7921C62.3491 50.7445 67.719 45.3794 76.111 45.3794C82.0856 45.3794 86.3809 47.4588 89.4761 52.9032L82.1586 57.6016C80.5475 54.7127 78.8094 53.5746 76.111 53.5746C73.3587 53.5746 71.6142 55.3207 71.6142 57.6016C71.6142 60.4207 73.3602 61.5619 77.392 63.308L79.7412 64.3143C87.7253 67.7381 92.2333 71.2286 92.2333 79.0762C92.2333 87.5365 85.5872 92.1715 76.6618 92.1715C67.9348 92.1715 62.2967 88.0127 59.538 82.5619L67.1745 78.1254ZM33.9793 78.9397C35.4555 81.5588 36.7983 83.773 40.0269 83.773C43.1142 83.773 45.0618 82.5651 45.0618 77.8683V45.9159H54.4586V77.9953C54.4586 87.7254 48.7539 92.154 40.4269 92.154C32.9031 92.154 28.546 88.2603 26.3301 83.5707L33.9793 78.9397Z" fill="black"/>
</svg>

<svg width="100" height="100" fill="none" xmlns="http://www.w3.org/2000/svg"><path d="M100 0H0v100h100V0z" fill="#F7DF1E"/><path d="M67.174 78.125c2.015 3.29 4.635 5.707 9.27 5.707 3.894 0 6.381-1.946 6.381-4.635 0-3.222-2.555-4.364-6.841-6.238l-2.35-1.008c-6.78-2.89-11.285-6.508-11.285-14.159 0-7.047 5.37-12.413 13.762-12.413 5.975 0 10.27 2.08 13.365 7.524l-7.317 4.699c-1.612-2.89-3.35-4.027-6.048-4.027-2.752 0-4.497 1.746-4.497 4.027 0 2.819 1.746 3.96 5.778 5.706l2.35 1.006c7.983 3.424 12.491 6.915 12.491 14.762 0 8.46-6.646 13.096-15.571 13.096-8.727 0-14.365-4.16-17.124-9.61l7.636-4.437zm-33.195.815c1.477 2.619 2.82 4.833 6.048 4.833 3.087 0 5.035-1.208 5.035-5.905V45.916h9.397v32.08c0 9.73-5.705 14.158-14.032 14.158-7.524 0-11.881-3.894-14.097-8.583l7.65-4.631z" fill="#000"/></svg>
